core/assets/icons/roaming.outline.svg

<svg width="24" height="24" viewBox="0 0 24 24" xmlns="http://www.w3.org/2000/svg"><g id="roaming=outline"><path id="Vector (Stroke)" fill-rule="evenodd" clip-rule="evenodd" d="M20.3111 3C20.1284 3 19.9532 3.07258 19.824 3.20176L15.0977 7.92804L4.70577 5.58182L4.46812 5.81947L12.849 10.1767L7.20083 15.8249L3.96725 14.9014L7.10308 16.8969L9.09809 20.0319L8.17411 16.8001L13.8223 11.1518L18.1804 19.532L18.4182 19.2942L16.0719 8.90223L20.7982 4.17596C20.9274 4.04677 21 3.87156 21 3.68886C21 3.50617 20.9274 3.33095 20.7982 3.20176C20.669 3.07258 20.4938 3 20.3111 3ZM18.4098 1.78755C18.9141 1.28329 19.598 1 20.3111 1C21.0242 1 21.7082 1.28329 22.2124 1.78755C22.7167 2.29181 23 2.97573 23 3.68886C23 4.40199 22.7167 5.08591 22.2124 5.59017L18.2656 9.53701L20.6118 19.929L17.665 22.8758L13.307 14.4956L10.4206 17.382L11.4827 21.0968L8.99082 23.5886L5.65437 18.3456L0.411377 15.0092L2.9031 12.5174L6.61866 13.5787L9.50503 10.6923L1.1241 6.33507L4.071 3.38817L14.463 5.73438L18.4098 1.78755Z"/></g></svg>

<svg xmlns="http://www.w3.org/2000/svg" width="24" height="24" fill="none"><path fill="#191C22" fill-rule="evenodd" d="M20.311 3a.689.689 0 0 0-.487.202l-4.726 4.726L4.706 5.582l-.238.237 8.381 4.358-5.648 5.648-3.234-.924 3.136 1.996 1.995 3.135-.924-3.232 5.648-5.648 4.358 8.38.238-.238-2.346-10.392 4.726-4.726A.689.689 0 0 0 20.311 3ZM18.41 1.788a2.689 2.689 0 0 1 3.802 3.802l-3.946 3.947 2.346 10.392-2.947 2.947-4.358-8.38-2.886 2.886 1.062 3.715-2.492 2.492-3.337-5.243-5.243-3.337 2.492-2.492L6.62 13.58l2.886-2.887-8.38-4.357L4.07 3.388l10.392 2.346 3.947-3.946Z" clip-rule="evenodd"/></svg>
